components/Common/Svg/svgs/postgreSql.svg

<svg
  width="78"
  height="80"
  viewBox="0 0 78 80"
  fill="none"
  xmlns="http://www.w3.org/2000/svg"
>
  <path
    d="M57.4673 57.7819C57.9649 53.6359 57.8158 53.0279 60.9039 53.6995L61.6879 53.7684C64.0625 53.8764 67.1687 53.3865 68.9935 52.5387C72.9219 50.7159 75.2513 47.6726 71.3777 48.4723C62.542 50.295 61.9346 47.3032 61.9346 47.3032C71.2646 33.4598 75.1648 15.8869 71.7983 11.5855C62.616 -0.147402 46.7217 5.4008 46.4557 5.54485L46.371 5.56049C44.6252 5.19825 42.6714 4.98183 40.4766 4.94634C36.4781 4.88064 33.4441 5.99457 31.1427 7.74021C31.1427 7.74021 2.78803 -3.94154 4.10714 22.4312C4.38768 28.0414 12.1488 64.8829 21.4054 53.755C24.7887 49.686 28.0582 46.2455 28.0582 46.2455C29.6818 47.3241 31.6256 47.8743 33.6642 47.6766L33.8218 47.5423C33.7725 48.0475 33.7942 48.5416 33.8849 49.1266C31.5007 51.791 32.2013 52.2588 27.4337 53.2401C22.6103 54.2342 25.4441 56.0041 27.2937 56.4667C29.5367 57.0276 34.7255 57.8221 38.2324 52.9139L38.0927 53.474C39.0282 54.2223 38.9649 58.8528 39.0976 62.1612C39.2304 65.4698 39.4519 68.5572 40.1263 70.3775C40.8007 72.1974 41.5965 76.8861 47.8621 75.5433C53.0987 74.4211 57.1024 72.806 57.4673 57.7817"
    fill="#6A6A6A"
  ></path>
  <path
    d="M57.4673 57.7819C57.9649 53.6359 57.8158 53.0279 60.9039 53.6995L61.6879 53.7684C64.0625 53.8764 67.1687 53.3865 68.9935 52.5387C72.9219 50.7159 75.2513 47.6726 71.3777 48.4723C62.542 50.295 61.9346 47.3032 61.9346 47.3032C71.2646 33.4598 75.1648 15.8869 71.7983 11.5855C62.616 -0.147402 46.7217 5.4008 46.4557 5.54485L46.371 5.56049C44.6252 5.19825 42.6714 4.98183 40.4766 4.94634C36.4781 4.88064 33.4441 5.99457 31.1427 7.74021C31.1427 7.74021 2.78803 -3.94154 4.10714 22.4312C4.38768 28.0414 12.1488 64.8829 21.4054 53.755C24.7887 49.686 28.0582 46.2455 28.0582 46.2455C29.6818 47.3241 31.6256 47.8743 33.6642 47.6766L33.8218 47.5423C33.7725 48.0475 33.7942 48.5416 33.8849 49.1266C31.5007 51.791 32.2013 52.2588 27.4337 53.2401C22.6104 54.2342 25.4441 56.0041 27.2937 56.4667C29.5367 57.0276 34.7255 57.8221 38.2324 52.9139L38.0927 53.474C39.0282 54.2223 38.9649 58.8528 39.0976 62.1612C39.2304 65.4698 39.4519 68.5572 40.1263 70.3775C40.8007 72.1975 41.5965 76.8861 47.8621 75.5433C53.0987 74.4211 57.1024 72.806 57.4673 57.7817"
    stroke="#6A6A6A"
    stroke-width="7.9246"
  ></path>
  <path
    d="M71.3795 48.4717C62.5429 50.2944 61.9354 47.3026 61.9354 47.3026C71.2655 33.4583 75.1657 15.8851 71.7998 11.5842C62.6175 -0.147989 46.7225 5.40057 46.4573 5.54462L46.3719 5.5599C44.6261 5.19749 42.6723 4.98159 40.4764 4.94576C36.4779 4.88023 33.445 5.99398 31.1435 7.73927C31.1435 7.73927 2.78836 -3.94195 4.10711 22.4306C4.38766 28.0412 12.1486 64.8826 21.4056 53.7548C24.789 49.6857 28.058 46.2452 28.058 46.2452C29.6818 47.3238 31.6256 47.874 33.6633 47.6764L33.8216 47.542C33.7724 48.0472 33.7949 48.5414 33.885 49.1264C31.5003 51.7908 32.2011 52.2586 27.4339 53.2399C22.6101 54.234 25.4439 56.0039 27.2941 56.4664C29.537 57.0273 34.7261 57.8219 38.2324 52.9137L38.0925 53.4737C39.0269 54.2221 39.683 58.3417 39.5731 62.0761C39.4631 65.8107 39.3897 68.3746 40.1259 70.3773C40.8621 72.3799 41.5959 76.8859 47.8628 75.543C53.0994 74.4209 55.8129 71.5128 56.1905 66.662C56.4584 63.2134 57.0646 63.7232 57.1029 60.64L57.5891 59.1804C58.1499 54.5056 57.6782 52.9975 60.9044 53.6989L61.6884 53.7678C64.063 53.8758 67.1707 53.3859 68.9947 52.5381C72.9224 50.7153 75.2518 47.672 71.3791 48.4717H71.3795Z"
    fill="#7C7C7C"
  ></path>
  <path
    d="M38.6123 51.1514C38.369 59.8499 38.6735 68.609 39.5246 70.7378C40.3762 72.8665 42.1988 77.0071 48.4662 75.6644C53.7023 74.5419 55.6074 72.3696 56.4341 67.5746C57.043 64.0468 58.2168 54.2493 58.3674 52.2419"
    stroke="white"
    stroke-width="2.64153"
    stroke-linecap="round"
    stroke-linejoin="round"
  ></path>
  <path
    d="M31.1 7.54522C31.1 7.54522 2.7255 -4.05185 4.04461 22.3207C4.32515 27.9313 12.0866 64.774 21.3434 53.6456C24.7261 49.576 27.7854 46.3842 27.7854 46.3842"
    stroke="white"
    stroke-width="2.64153"
    stroke-linecap="round"
    stroke-linejoin="round"
  ></path>
  <path
    d="M46.4241 5.42832C45.4419 5.73627 62.2078 -0.700652 71.736 11.4744C75.1016 15.7755 71.2014 33.3487 61.8715 47.1933"
    stroke="white"
    stroke-width="2.64153"
    stroke-linecap="round"
    stroke-linejoin="round"
  ></path>
  <path
    d="M61.8755 47.1934C61.8755 47.1934 62.4835 50.1862 71.3202 48.3622C75.192 47.5625 72.8619 50.6062 68.9351 52.4298C65.7125 53.9255 58.4873 54.3088 58.3693 52.242C58.0655 46.9096 62.172 48.5296 61.8757 47.1934C61.6078 45.9901 59.7713 44.8091 58.5565 41.864C57.496 39.2934 44.0117 19.5803 62.296 22.508C62.9659 22.3694 57.5273 5.1163 40.4157 4.83575C23.308 4.55521 23.8693 25.8744 23.8693 25.8744"
    stroke="white"
    stroke-width="2.64153"
    stroke-linecap="round"
    stroke-linejoin="bevel"
  ></path>
  <path
    d="M33.8213 49.0167C31.4362 51.6809 32.1376 52.1487 27.3701 53.1304C22.5464 54.1246 25.3805 55.8942 27.2301 56.3565C29.4731 56.9178 34.6622 57.7124 38.1684 52.8029C39.2361 51.3081 38.1621 48.923 36.6954 48.315C35.9868 48.0215 35.0392 47.6536 33.8213 49.0167V49.0167Z"
    stroke="white"
    stroke-width="2.64153"
    stroke-linecap="round"
    stroke-linejoin="round"
  ></path>
  <path
    d="M33.6634 48.9702C33.4231 47.4038 34.1782 45.5397 34.9873 43.359C36.2033 40.0869 39.0089 36.8144 36.7646 26.435C35.0916 18.7004 23.871 24.8254 23.864 25.8741C23.8572 26.9225 24.3715 31.1899 23.6766 36.1593C22.7698 42.6438 27.8027 48.1281 33.5983 47.567"
    stroke="white"
    stroke-width="2.64153"
    stroke-linecap="round"
    stroke-linejoin="round"
  ></path>
  <path
    d="M30.9947 25.7171C30.9442 26.0753 31.6505 27.0311 32.5716 27.1588C33.491 27.2871 34.278 26.5401 34.3279 26.1823C34.3778 25.8241 33.6723 25.4295 32.7509 25.3013C31.8309 25.1729 31.0436 25.3598 30.9949 25.7171H30.9947Z"
    fill="white"
    stroke="white"
    stroke-width="0.880504"
  ></path>
  <path
    d="M59.0008 24.9866C59.0507 25.3447 58.3452 26.3006 57.424 26.4283C56.5039 26.5565 55.7169 25.8096 55.6664 25.4517C55.6178 25.0935 56.3234 24.699 57.2438 24.5707C58.1641 24.4425 58.951 24.6292 59.0008 24.9867V24.9866Z"
    fill="white"
    stroke="white"
    stroke-width="0.440252"
  ></path>
  <path
    d="M62.2919 22.5078C62.4435 25.3175 61.6868 27.2312 61.5914 30.2222C61.4501 34.5697 63.6641 39.5458 60.3281 44.5279"
    stroke="white"
    stroke-width="2.64153"
    stroke-linecap="round"
    stroke-linejoin="round"
  ></path>
</svg>

<svg width="78" height="80" viewBox="0 0 78 80" fill="none" xmlns="http://www.w3.org/2000/svg"><path d="M57.467 57.782c.498-4.146.349-4.754 3.437-4.082l.784.068c2.374.108 5.48-.382 7.305-1.23 3.929-1.822 6.258-4.865 2.385-4.066-8.836 1.823-9.443-1.169-9.443-1.169 9.33-13.843 13.23-31.416 9.863-35.717C62.616-.147 46.722 5.4 46.456 5.545l-.085.015c-1.746-.362-3.7-.578-5.894-.614-3.999-.065-7.033 1.049-9.334 2.794 0 0-28.355-11.682-27.036 14.691.28 5.61 8.042 42.452 17.298 31.324a170.767 170.767 0 0 1 6.653-7.51c1.624 1.08 3.568 1.63 5.606 1.432l.158-.135c-.05.505-.028 1 .063 1.585-2.384 2.664-1.684 3.132-6.451 4.113-4.824.994-1.99 2.764-.14 3.227 2.243.56 7.431 1.355 10.938-3.553l-.14.56c.936.748.873 5.379 1.006 8.687.132 3.309.354 6.396 1.028 8.216.675 1.82 1.47 6.51 7.736 5.166 5.237-1.122 9.24-2.737 9.605-17.761" fill="#6A6A6A"/><path d="M57.467 57.782c.498-4.146.349-4.754 3.437-4.082l.784.068c2.374.108 5.48-.382 7.305-1.23 3.929-1.822 6.258-4.865 2.385-4.066-8.836 1.823-9.443-1.169-9.443-1.169 9.33-13.843 13.23-31.416 9.863-35.717C62.616-.147 46.722 5.4 46.456 5.545l-.085.015c-1.746-.362-3.7-.578-5.894-.614-3.999-.065-7.033 1.049-9.334 2.794 0 0-28.355-11.682-27.036 14.691.28 5.61 8.042 42.452 17.298 31.324a170.767 170.767 0 0 1 6.653-7.51c1.624 1.08 3.568 1.63 5.606 1.432l.158-.135c-.05.505-.028 1 .063 1.585-2.384 2.664-1.684 3.132-6.451 4.113-4.824.994-1.99 2.764-.14 3.227 2.243.56 7.431 1.355 10.938-3.553l-.14.56c.936.748.873 5.379 1.006 8.687.132 3.309.354 6.396 1.028 8.216.675 1.82 1.47 6.51 7.736 5.166 5.237-1.122 9.24-2.737 9.605-17.761" stroke="#6A6A6A" stroke-width="7.925"/><path d="M71.38 48.472c-8.837 1.822-9.445-1.17-9.445-1.17 9.33-13.844 13.23-31.417 9.865-35.718-9.182-11.732-25.078-6.183-25.343-6.04l-.085.016c-1.746-.363-3.7-.578-5.896-.614-3.998-.066-7.031 1.048-9.332 2.793 0 0-28.356-11.68-27.037 14.692.28 5.61 8.042 42.452 17.299 31.324 3.383-4.07 6.652-7.51 6.652-7.51 1.624 1.079 3.568 1.629 5.605 1.431l.159-.134c-.05.505-.027 1 .063 1.584-2.385 2.665-1.684 3.133-6.451 4.114-4.824.994-1.99 2.764-.14 3.226 2.243.561 7.432 1.356 10.938-3.552l-.14.56c.935.748 1.591 4.868 1.481 8.602-.11 3.735-.183 6.299.553 8.301.736 2.003 1.47 6.509 7.737 5.166 5.236-1.122 7.95-4.03 8.328-8.881.267-3.449.874-2.939.912-6.022l.486-1.46c.56-4.674.09-6.182 3.315-5.481l.784.069c2.375.108 5.483-.382 7.307-1.23 3.927-1.823 6.257-4.866 2.384-4.066Z" fill="#7C7C7C"/><path d="M38.612 51.151c-.243 8.699.061 17.458.913 19.587.851 2.129 2.674 6.27 8.941 4.926 5.236-1.122 7.141-3.294 7.968-8.09.609-3.527 1.783-13.325 1.933-15.332M31.1 7.545S2.725-4.052 4.045 22.321c.28 5.61 8.042 42.453 17.298 31.325 3.383-4.07 6.442-7.262 6.442-7.262M46.424 5.428c-.982.308 15.784-6.129 25.312 6.046 3.366 4.301-.535 21.875-9.865 35.72" stroke="#fff" stroke-width="2.642" stroke-linecap="round" stroke-linejoin="round"/><path d="M61.876 47.193s.608 2.993 9.444 1.17c3.872-.8 1.542 2.243-2.385 4.067-3.222 1.495-10.448 1.879-10.566-.188-.303-5.332 3.803-3.712 3.507-5.049-.268-1.203-2.105-2.384-3.32-5.329-1.06-2.57-14.544-22.284 3.74-19.356.67-.139-4.769-17.392-21.88-17.672-17.108-.28-16.547 21.038-16.547 21.038" stroke="#fff" stroke-width="2.642" stroke-linecap="round" stroke-linejoin="bevel"/><path d="M33.821 49.017c-2.385 2.664-1.683 3.132-6.45 4.113-4.825.995-1.99 2.764-.14 3.226 2.242.562 7.431 1.356 10.937-3.553 1.068-1.495-.006-3.88-1.473-4.488-.708-.293-1.656-.661-2.874.702v0Z" stroke="#fff" stroke-width="2.642" stroke-linecap="round" stroke-linejoin="round"/><path d="M33.663 48.97c-.24-1.566.515-3.43 1.324-5.611 1.216-3.272 4.022-6.545 1.778-16.924-1.673-7.735-12.894-1.61-12.901-.56-.007 1.047.508 5.315-.187 10.284-.907 6.485 4.126 11.97 9.921 11.408" stroke="#fff" stroke-width="2.642" stroke-linecap="round" stroke-linejoin="round"/><path d="M30.995 25.717c-.05.358.655 1.314 1.577 1.442.919.128 1.706-.619 1.756-.977.05-.358-.656-.752-1.577-.88-.92-.13-1.707.058-1.756.415Z" fill="#fff" stroke="#fff" stroke-width=".881"/><path d="M59 24.987c.05.358-.655 1.314-1.576 1.441-.92.128-1.707-.618-1.758-.976-.048-.359.657-.753 1.578-.881.92-.129 1.707.058 1.757.416Z" fill="#fff" stroke="#fff" stroke-width=".44"/><path d="M62.292 22.508c.151 2.81-.605 4.723-.7 7.714-.142 4.348 2.072 9.324-1.264 14.306" stroke="#fff" stroke-width="2.642" stroke-linecap="round" stroke-linejoin="round"/></svg>
